src/fonts/icomoon/icons/instagram.svg

<!-- Generated by IcoMoon.io -->
<svg version="1.1" xmlns="http://www.w3.org/2000/svg" width="1024" height="1024" viewBox="0 0 1024 1024">
<title></title>
<g id="icomoon-ignore">
</g>
<path d="M718.946 0h-413.891c-168.208 0-305.055 136.847-305.055 305.055v413.891c0 168.205 136.847 305.054 305.055 305.054h413.891c168.205 0 305.054-136.849 305.054-305.054v-413.891c0-168.208-136.849-305.055-305.054-305.055zM920.986 718.946c0 111.582-90.458 202.039-202.039 202.039h-413.891c-111.583 0-202.041-90.458-202.041-202.039v-413.891c0-111.585 90.458-202.041 202.041-202.041h413.891c111.582 0 202.039 90.456 202.039 202.041v413.891z"></path>
<path d="M512 247.156c-146.036 0-264.844 118.808-264.844 264.84 0 146.035 118.808 264.845 264.844 264.845s264.841-118.81 264.841-264.845c0-146.033-118.805-264.84-264.841-264.84zM512 673.826c-89.377 0-161.83-72.452-161.83-161.826 0-89.377 72.454-161.83 161.83-161.83 89.374 0 161.826 72.453 161.826 161.83 0 89.374-72.452 161.826-161.826 161.826z"></path>
<path d="M777.357 312.606c35.051 0 63.462-28.413 63.462-63.462s-28.412-63.462-63.462-63.462c-35.046 0-63.462 28.413-63.462 63.462s28.416 63.462 63.462 63.462z"></path>
</svg>

<svg xmlns="http://www.w3.org/2000/svg" width="1024" height="1024"><path d="M718.946 0H305.055C136.847 0 0 136.847 0 305.055v413.891C0 887.151 136.847 1024 305.055 1024h413.891C887.151 1024 1024 887.151 1024 718.946V305.055C1024 136.847 887.151 0 718.946 0zm202.04 718.946c0 111.582-90.458 202.039-202.039 202.039H305.056c-111.583 0-202.041-90.458-202.041-202.039V305.055c0-111.585 90.458-202.041 202.041-202.041h413.891c111.582 0 202.039 90.456 202.039 202.041v413.891z"/><path d="M512 247.156c-146.036 0-264.844 118.808-264.844 264.84 0 146.035 118.808 264.845 264.844 264.845s264.841-118.81 264.841-264.845c0-146.033-118.805-264.84-264.841-264.84zm0 426.67c-89.377 0-161.83-72.452-161.83-161.826 0-89.377 72.454-161.83 161.83-161.83 89.374 0 161.826 72.453 161.826 161.83 0 89.374-72.452 161.826-161.826 161.826zM777.357 312.606c35.051 0 63.462-28.413 63.462-63.462s-28.412-63.462-63.462-63.462c-35.046 0-63.462 28.413-63.462 63.462s28.416 63.462 63.462 63.462z"/></svg>
